icon_installer/data/icons/scalable/actions/show-phonelink-ring-symbolic.svg

<?xml version="1.0" encoding="UTF-8"?>
<svg height="16px" viewBox="0 0 16 16" width="16px" xmlns="http://www.w3.org/2000/svg">
    <g fill="#222222">
        <path d="m 11.800781 0 c 1.203125 0 2.199219 1 2.199219 2.199219 h -2 c 0 -0.128907 -0.074219 -0.199219 -0.199219 -0.199219 h -7.605469 c -0.125 0 -0.195312 0.070312 -0.195312 0.199219 v 9.613281 c 0 0.128906 0.070312 0.199219 0.195312 0.199219 l 7.804688 -0.011719 v 2 l 1.984375 0.0625 c -0.132813 1.082031 -1.070313 1.9375 -2.183594 1.9375 h -7.605469 c -1.203124 0 -2.195312 -1 -2.195312 -2.199219 v -11.601562 c 0 -1.199219 0.992188 -2.199219 2.195312 -2.199219 z m -3.800781 12.902344 c -0.550781 0 -1 0.382812 -1 0.933594 c 0 0.550781 0.449219 1 1 1 s 1 -0.449219 1 -1 c 0 -0.550782 -0.449219 -0.933594 -1 -0.933594 z m 0 0"/>
        <path d="m 16 8.0625 c 0 -2.167969 -0.738281 -4.019531 -2 -5 h -1 v 2 c 0.605469 0.789062 1 1.757812 1 3 s -0.394531 2.21875 -1 3 v 2 h 1 c 1.222656 -0.996094 2 -2.875 2 -5 z m 0 0"/>
        <path d="m 13 8.0625 c 0 -1.257812 -0.3125 -2.214844 -1 -3 h -1 v 6 h 1 c 0.671875 -0.835938 1 -1.742188 1 -3 z m 0 0"/>
    </g>
</svg>

<svg xmlns="http://www.w3.org/2000/svg" width="16" height="16"><g fill="#222"><path d="M11.8 0C13.005 0 14 1 14 2.2h-2c0-.13-.074-.2-.2-.2H4.196C4.07 2 4 2.07 4 2.2v9.613c0 .128.07.199.195.199L12 12v2l1.984.063A2.22 2.22 0 0 1 11.801 16H4.195C2.992 16 2 15 2 13.8V2.2C2 1 2.992 0 4.195 0zM8 12.902c-.55 0-1 .383-1 .934 0 .55.45 1 1 1s1-.45 1-1-.45-.934-1-.934zm0 0"/><path d="M16 8.063c0-2.168-.738-4.02-2-5h-1v2c.605.789 1 1.757 1 3s-.395 2.218-1 3v2h1c1.223-.997 2-2.876 2-5zm-3 0c0-1.258-.313-2.215-1-3h-1v6h1c.672-.836 1-1.743 1-3zm0 0"/></g></svg>
